app/images/icons/car.svg

<svg width="30" height="16" viewBox="0 0 30 16" fill="none" xmlns="http://www.w3.org/2000/svg">
<path d="M10.0503 12.4974C10.0465 13.1119 9.86087 13.7115 9.51676 14.2207C9.17265 14.7298 8.68544 15.1256 8.11664 15.3582C7.54783 15.5907 6.92288 15.6497 6.32065 15.5276C5.71833 15.4053 5.16576 15.1076 4.73261 14.6717C4.29935 14.2359 4.00489 13.6815 3.88641 13.0786C3.76783 12.4756 3.83058 11.851 4.06659 11.2836C4.3026 10.7162 4.70139 10.2314 5.21258 9.89041C5.72378 9.54934 6.32453 9.36738 6.93911 9.36738C7.34995 9.36476 7.75713 9.44417 8.13706 9.60077C8.5169 9.75748 8.86164 9.98815 9.15128 10.2796C9.44102 10.571 9.6697 10.9172 9.824 11.298C9.9783 11.6788 10.0552 12.0866 10.0503 12.4974Z" fill="white"/>
<path d="M27.2843 12.4974C27.2805 13.1119 27.0949 13.7115 26.7508 14.2207C26.4067 14.7298 25.9196 15.1256 25.3507 15.3582C24.7819 15.5907 24.157 15.6497 23.5547 15.5276C22.9524 15.4053 22.3999 15.1076 21.9666 14.6717C21.5335 14.2359 21.239 13.6815 21.1204 13.0786C21.0019 12.4756 21.0646 11.851 21.3006 11.2836C21.5367 10.7162 21.9354 10.2314 22.4466 9.89041C22.9579 9.54934 23.5586 9.36738 24.1731 9.36738C24.584 9.36476 24.9912 9.44417 25.3711 9.60077C25.7509 9.75748 26.0957 9.98815 26.3854 10.2796C26.675 10.571 26.9037 10.9172 27.058 11.298C27.2124 11.6788 27.2893 12.0866 27.2843 12.4974Z" fill="white"/>
<path d="M28.4717 6.06752L23.7767 5.20017C23.2963 5.19776 22.8286 5.04618 22.438 4.76649C20.9861 3.54089 19.4965 2.31528 18.0258 1.10853C17.5487 0.653698 16.9126 0.403341 16.2534 0.410883H9.3146C8.93487 0.40177 8.55797 0.478448 8.21187 0.635158C7.86587 0.791868 7.55957 1.02452 7.31592 1.31594L4.43103 4.74764C4.36766 4.84715 4.27726 4.92656 4.17041 4.97663C4.06356 5.0267 3.94467 5.04535 3.82766 5.03047H2.13067C1.5671 5.03539 1.02804 5.26145 0.629459 5.65993C0.23098 6.05851 0.00492337 6.59757 0 7.16114V9.83862C0 11.5168 0.659942 12.6669 2.33808 12.3841C2.31912 11.7907 2.42335 11.1997 2.64417 10.6486C2.86488 10.0974 3.19747 9.59789 3.62077 9.18161C4.04418 8.76532 4.54919 8.44121 5.10407 8.22982C5.65884 8.01833 6.25153 7.92416 6.84453 7.95307H7.86273C8.54708 8.04515 9.19623 8.31132 9.74827 8.72614C10.3264 9.25399 10.7887 9.89602 11.1059 10.6117C11.3222 11.159 11.4433 11.7394 11.4641 12.3275H19.5154C19.5213 11.259 19.9019 10.2264 20.5911 9.40976C21.2803 8.59311 22.2342 8.0442 23.2865 7.85879H24.7007C25.758 8.00974 26.7278 8.52973 27.4387 9.32679C28.1495 10.124 28.5556 11.1468 28.5849 12.2144C28.9773 12.0699 29.3196 11.8151 29.5705 11.4805C29.8214 11.146 29.9702 10.7461 29.999 10.3289V8.16048C30.0132 7.6915 29.8706 7.23122 29.5941 6.85222C29.3175 6.47323 28.9226 6.19721 28.4717 6.06752ZM10.7099 4.18197C10.7154 4.28495 10.6991 4.38792 10.6621 4.48408C10.6252 4.58035 10.5685 4.66782 10.4956 4.74073C10.4227 4.81363 10.3352 4.8703 10.2389 4.90728C10.1428 4.94415 10.0398 4.9605 9.93683 4.95505H8.40954C7.93815 4.95505 7.44791 4.95505 6.97652 4.95505C6.89345 4.95442 6.81154 4.93557 6.73653 4.89974C6.66164 4.86381 6.59543 4.81196 6.54285 4.74764C6.52577 4.66855 6.52713 4.58664 6.54672 4.50818C6.56631 4.42972 6.60371 4.35681 6.65598 4.29511L8.54152 1.99474C8.62512 1.89585 8.72903 1.81603 8.84614 1.76083C8.96326 1.70552 9.09085 1.67598 9.22032 1.6742H9.86141C9.96689 1.66875 10.0723 1.68551 10.1707 1.72343C10.2693 1.76135 10.3588 1.81949 10.4335 1.89407C10.508 1.96876 10.5662 2.05822 10.6041 2.15679C10.642 2.25536 10.6588 2.36075 10.6533 2.46613L10.7099 4.18197ZM19.9491 4.80421C19.9491 4.91734 19.8359 4.95505 19.6285 4.95505H13.0857C12.4823 4.95505 12.2183 4.67222 12.2183 4.06884C12.2183 3.46547 12.2183 3.01294 12.2183 2.48498C12.2069 2.37489 12.2199 2.26354 12.2563 2.15899C12.2927 2.05445 12.3517 1.95913 12.4291 1.87993C12.5065 1.80074 12.6004 1.73956 12.7041 1.70081C12.8078 1.66194 12.9187 1.64644 13.0291 1.65534H16.2911C16.4923 1.69222 16.6769 1.7911 16.8191 1.93818C17.8373 2.71125 18.7046 3.54089 19.6474 4.31396C19.8171 4.54023 20.0245 4.67222 19.9491 4.87963V4.80421Z" fill="white"/>
</svg>

<svg width="30" height="16" fill="none" xmlns="http://www.w3.org/2000/svg"><path d="M10.05 12.497a3.112 3.112 0 11-3.11-3.13 3.092 3.092 0 013.11 3.13zm17.234 0a3.112 3.112 0 11-3.11-3.13 3.092 3.092 0 013.11 3.13z" fill="#fff"/><path d="M28.472 6.068L23.777 5.2a2.32 2.32 0 01-1.339-.434 413.028 413.028 0 00-4.412-3.657A2.527 2.527 0 0016.253.41H9.315a2.526 2.526 0 00-2 .905L4.432 4.748a.622.622 0 01-.603.282H2.13A2.15 2.15 0 000 7.161V9.84c0 1.678.66 2.828 2.338 2.545a4.297 4.297 0 014.507-4.43h1.018a4.034 4.034 0 011.885.772 5.657 5.657 0 011.358 1.886c.216.547.337 1.127.358 1.716h8.051a4.563 4.563 0 013.771-4.47h1.415a4.526 4.526 0 013.884 4.356 2.168 2.168 0 001.414-1.885V8.16a2.111 2.111 0 00-1.527-2.092zM10.71 4.182a.733.733 0 01-.471.725.735.735 0 01-.302.048h-2.96a.567.567 0 01-.434-.207.528.528 0 01.113-.453l1.886-2.3a.903.903 0 01.678-.32h.641a.752.752 0 01.792.791l.057 1.716zm9.24.622c0 .113-.114.151-.322.151h-6.542c-.604 0-.868-.283-.868-.886V2.485a.755.755 0 01.811-.83h3.262a.98.98 0 01.528.283c1.018.773 1.886 1.603 2.828 2.376.17.226.378.358.302.566v-.076z" fill="#fff"/></svg>
